public/images/home/section-orange-bg.svg

<svg xmlns="http://www.w3.org/2000/svg" width="1920" height="938" fill="none" xmlns:v="https://vecta.io/nano"><g clip-path="url(#C)"><path d="M102.053 769.216c-45.654-4.054-82.074-39.816-86.961-85.389L-48.5 90.741l1977.13-83.5v924.188L102.053 769.216z" fill="#ff6b00"/><g clip-path="url(#D)"><mask id="A" mask-type="alpha" maskUnits="userSpaceOnUse" x="172" y="-565" width="2113" height="1932"><path d="M585.526 811.662c-42.645-3.802-77.617-35.384-85.733-77.422L398.58 209.995c-13.903-72.013 39.476-139.542 112.754-142.64L1921 7.74v923L585.526 811.662z" fill="#ff6b00"/></mask><g mask="url(#A)"><path opacity=".3" d="M2218.57 513.501h-112.32l21.4-122.779h90.92c48.14 0 85.58-37.368 85.58-85.412s-37.44-85.412-85.58-85.412h-64.18l21.39-112.103c10.7-42.705-21.39-85.411-69.53-96.088-42.79-10.676-85.58 21.353-96.28 69.397l-26.74 138.794h-165.81l21.4-112.103c10.69-42.705-21.4-85.411-69.54-96.088-42.79-10.676-85.58 21.353-96.27 69.397l-26.75 138.794h-144.41c-48.14 0-85.58 37.368-85.58 85.412s48.14 85.412 96.28 85.412h112.32l-21.4 122.779h-90.92c-48.14 0-85.58 37.367-85.58 85.412s37.44 85.411 85.58 85.411h64.18l-21.39 112.103c-10.7 42.706 21.39 85.412 69.53 96.088 32.09 10.677 85.58-16.014 96.28-69.397l26.74-138.794h165.81l-21.4 112.103c-10.69 42.706 21.4 85.412 69.54 96.088 32.09 10.677 85.58-16.014 96.27-69.397l26.75-138.794h144.41c48.14 0 85.58-37.367 85.58-85.411-16.05-48.045-53.49-85.412-96.28-85.412zm-283.48 0h-165.81l21.4-122.779h165.81l-21.4 122.779z" fill="#f5520c" fill-opacity=".7"/><path d="M2174.92 538.058h-112.46l21.42-122.779h91.04c48.2 0 85.69-37.367 85.69-85.412s-37.49-85.411-85.69-85.411h-64.26l21.42-112.103c10.71-42.706-21.42-85.412-69.62-96.088-42.84-10.676-85.69 21.353-96.4 69.397l-26.77 138.794h-166.02l21.42-112.103c10.71-42.706-21.42-85.412-69.62-96.088-42.84-10.676-85.68 21.353-96.39 69.397l-26.78 138.794h-144.6c-48.19 0-85.68 37.367-85.68 85.411s48.2 85.412 96.4 85.412h112.46l-21.42 122.779h-91.04c-48.2 0-85.69 37.368-85.69 85.412s37.49 85.412 85.69 85.412h64.26l-21.42 112.103c-10.71 42.705 21.42 85.411 69.62 96.088 32.13 10.676 85.68-16.015 96.39-69.397l26.78-138.794h166.02l-21.43 112.103c-10.71 42.705 21.43 85.411 69.62 96.088 32.14 10.676 85.69-16.015 96.4-69.397l26.78-138.794h144.59c48.2 0 85.69-37.368 85.69-85.412-16.07-48.044-53.56-85.412-96.4-85.412zm-283.83 0h-166.02l21.42-122.779h166.02l-21.42 122.779z" fill="url(#B)" fill-opacity=".5"/><path d="M2060.49 537.715l-.41 2.343h2.38 112.46c41.54 0 78.41 36.263 94.4 83.737-.17 46.777-36.7 83.087-83.69 83.087h-144.59-1.65l-.32 1.621-26.77 138.779c-5.24 26.106-20.95 45.68-39.28 57.43-18.4 11.791-39.2 15.556-54.53 10.463l-.09-.033-.1-.022c-47.41-10.501-78.48-52.317-68.12-93.649l.02-.055.01-.056 21.42-112.103.45-2.375h-2.41-166.02-1.65l-.31 1.621-26.78 138.779c-5.24 26.106-20.94 45.68-39.28 57.43-18.4 11.791-39.19 15.556-54.52 10.463l-.1-.033-.1-.022c-47.4-10.501-78.48-52.317-68.11-93.649l.01-.055.01-.056 21.42-112.103.46-2.375h-2.42-64.26c-47.1 0-83.69-36.478-83.69-83.412s36.59-83.412 83.69-83.412h91.04 1.68l.29-1.656 21.42-122.779.41-2.344h-2.38-112.46c-23.61 0-47.25-9.158-64.98-24.214-17.73-15.049-29.42-35.878-29.42-59.198 0-46.933 36.59-83.411 83.68-83.411h144.6 1.65l.31-1.621 26.77-138.765c10.54-47.225 52.48-78.2 93.96-67.865l.02.006.03.006c47.4 10.501 78.48 52.317 68.11 93.649l-.01.056-.01.056-21.42 112.102-.46 2.376h2.42 166.02 1.65l.31-1.621 26.76-138.738c.01-.009.01-.019.01-.028 10.54-47.225 52.48-78.199 93.95-67.864l.03.006.03.006c47.4 10.501 78.47 52.317 68.11 93.649l-.02.056-.01.056-21.42 112.102-.45 2.376h2.42 64.26c47.1 0 83.69 36.478 83.69 83.411s-36.59 83.412-83.69 83.412h-91.04-1.68l-.29 1.656-21.42 122.78zm-169.4 2.343h1.68l.29-1.656 21.42-122.779.41-2.344h-2.38-166.02-1.68l-.29 1.656-21.42 122.78-.41 2.343h2.38 166.02z" stroke="#ff8a00" stroke-opacity=".4" stroke-width="4"/></g></g></g><defs><linearGradient id="B" x1="1821.47" y1="34.208" x2="1821.47" y2="919.393" gradientUnits="userSpaceOnUse"><stop stop-color="#f90"/><stop offset="1" stop-color="#ff6b00"/></linearGradient><clipPath id="C"><path fill="#fff" d="M0 0h1920v938H0z"/></clipPath><clipPath id="D"><path fill="#fff" transform="translate(0 9.74)" d="M0 0h1920v910H0z"/></clipPath></defs></svg>

<svg width="1920" height="938" viewBox="0 0 1920 938" fill="none" xmlns="http://www.w3.org/2000/svg">
<g clip-path="url(#clip0)">
<path d="M102.053 769.216C56.399 765.162 19.9788 729.4 15.0924 683.827L-48.5003 90.7406L1928.63 7.24054L1928.63 931.429L102.053 769.216Z" fill="#FF6B00"/>
<g clip-path="url(#clip1)">
<mask id="mask0" mask-type="alpha" maskUnits="userSpaceOnUse" x="172" y="-565" width="2113" height="1932">
<path d="M585.526 811.662C542.881 807.86 507.909 776.278 499.793 734.24L398.58 209.995C384.677 137.982 438.056 70.4534 511.334 67.3545L1921 7.74014L1921 930.74L585.526 811.662Z" fill="#FF6B00"/>
</mask>
<g mask="url(#mask0)">
<path opacity="0.3" d="M2218.57 513.501H2106.25L2127.65 390.722H2218.57C2266.71 390.722 2304.15 353.354 2304.15 305.31C2304.15 257.266 2266.71 219.898 2218.57 219.898H2154.39L2175.78 107.795C2186.48 65.0896 2154.39 22.3837 2106.25 11.7072C2063.46 1.03079 2020.67 33.0602 2009.97 81.1042L1983.23 219.898H1817.42L1838.82 107.795C1849.51 65.0896 1817.42 22.3837 1769.28 11.7072C1726.49 1.03079 1683.7 33.0602 1673.01 81.1042L1646.26 219.898H1501.85C1453.71 219.898 1416.27 257.266 1416.27 305.31C1416.27 353.354 1464.41 390.722 1512.55 390.722H1624.87L1603.47 513.501H1512.55C1464.41 513.501 1426.97 550.868 1426.97 598.913C1426.97 646.957 1464.41 684.324 1512.55 684.324H1576.73L1555.34 796.427C1544.64 839.133 1576.73 881.839 1624.87 892.515C1656.96 903.192 1710.45 876.501 1721.15 823.118L1747.89 684.324H1913.7L1892.3 796.427C1881.61 839.133 1913.7 881.839 1961.84 892.515C1993.93 903.192 2047.42 876.501 2058.11 823.118L2084.86 684.324H2229.27C2277.41 684.324 2314.85 646.957 2314.85 598.913C2298.8 550.868 2261.36 513.501 2218.57 513.501ZM1935.09 513.501H1769.28L1790.68 390.722H1956.49L1935.09 513.501Z" fill="#F5520C" fill-opacity="0.7"/>
<path d="M2174.92 538.058H2062.46L2083.88 415.279H2174.92C2223.12 415.279 2260.61 377.912 2260.61 329.867C2260.61 281.823 2223.12 244.456 2174.92 244.456H2110.66L2132.08 132.353C2142.79 89.647 2110.66 46.9412 2062.46 36.2647C2019.62 25.5883 1976.77 57.6177 1966.06 105.662L1939.29 244.456H1773.27L1794.69 132.353C1805.4 89.647 1773.27 46.9412 1725.07 36.2647C1682.23 25.5883 1639.39 57.6177 1628.68 105.662L1601.9 244.456H1457.3C1409.11 244.456 1371.62 281.823 1371.62 329.867C1371.62 377.912 1419.82 415.279 1468.02 415.279H1580.48L1559.06 538.058H1468.02C1419.82 538.058 1382.33 575.426 1382.33 623.47C1382.33 671.514 1419.82 708.882 1468.02 708.882H1532.28L1510.86 820.985C1500.15 863.69 1532.28 906.396 1580.48 917.073C1612.61 927.749 1666.16 901.058 1676.87 847.676L1703.65 708.882H1869.67L1848.24 820.985C1837.53 863.69 1869.67 906.396 1917.86 917.073C1950 927.749 2003.55 901.058 2014.26 847.676L2041.04 708.882H2185.63C2233.83 708.882 2271.32 671.514 2271.32 623.47C2255.25 575.426 2217.76 538.058 2174.92 538.058ZM1891.09 538.058H1725.07L1746.49 415.279H1912.51L1891.09 538.058Z" fill="url(#paint0_linear)" fill-opacity="0.5"/>
<path d="M2060.49 537.715L2060.08 540.058H2062.46H2174.92C2216.46 540.058 2253.33 576.321 2269.32 623.795C2269.15 670.572 2232.62 706.882 2185.63 706.882H2041.04H2039.39L2039.07 708.503L2012.3 847.282C2012.3 847.285 2012.3 847.287 2012.3 847.289C2007.06 873.388 1991.35 892.962 1973.02 904.712C1954.62 916.503 1933.82 920.268 1918.49 915.175L1918.4 915.142L1918.3 915.12C1870.89 904.619 1839.82 862.803 1850.18 821.471L1850.2 821.416L1850.21 821.36L1871.63 709.257L1872.08 706.882H1869.67H1703.65H1702L1701.69 708.503L1674.91 847.282C1674.91 847.285 1674.91 847.287 1674.91 847.289C1669.67 873.388 1653.97 892.962 1635.63 904.712C1617.23 916.503 1596.44 920.268 1581.11 915.175L1581.01 915.142L1580.91 915.12C1533.51 904.619 1502.43 862.803 1512.8 821.471L1512.81 821.416L1512.82 821.36L1534.24 709.257L1534.7 706.882H1532.28H1468.02C1420.92 706.882 1384.33 670.404 1384.33 623.47C1384.33 576.537 1420.92 540.058 1468.02 540.058H1559.06H1560.74L1561.03 538.402L1582.45 415.623L1582.86 413.279H1580.48H1468.02C1444.41 413.279 1420.77 404.121 1403.04 389.065C1385.31 374.016 1373.62 353.187 1373.62 329.867C1373.62 282.934 1410.21 246.456 1457.3 246.456H1601.9H1603.55L1603.86 244.835L1630.63 106.07C1641.17 58.8448 1683.11 27.8702 1724.59 38.2054L1724.61 38.2117L1724.64 38.2174C1772.04 48.7181 1803.12 90.5347 1792.75 131.866L1792.74 131.922L1792.73 131.978L1771.31 244.08L1770.85 246.456H1773.27H1939.29H1940.94L1941.25 244.835L1968.01 106.097C1968.02 106.088 1968.02 106.078 1968.02 106.069C1978.56 58.8443 2020.5 27.8703 2061.97 38.2054L2062 38.2117L2062.03 38.2174C2109.43 48.7181 2140.5 90.5347 2130.14 131.866L2130.12 131.922L2130.11 131.978L2108.69 244.08L2108.24 246.456H2110.66H2174.92C2222.02 246.456 2258.61 282.934 2258.61 329.867C2258.61 376.801 2222.02 413.279 2174.92 413.279H2083.88H2082.2L2081.91 414.935L2060.49 537.715ZM1891.09 540.058H1892.77L1893.06 538.402L1914.48 415.623L1914.89 413.279H1912.51H1746.49H1744.81L1744.52 414.935L1723.1 537.715L1722.69 540.058H1725.07H1891.09Z" stroke="#FF8A00" stroke-opacity="0.4" stroke-width="4"/>
</g>
</g>
</g>
<defs>
<linearGradient id="paint0_linear" x1="1821.47" y1="34.2075" x2="1821.47" y2="919.393" gradientUnits="userSpaceOnUse">
<stop stop-color="#FF9900"/>
<stop offset="1" stop-color="#FF6B00"/>
</linearGradient>
<clipPath id="clip0">
<rect width="1920" height="938" fill="white"/>
</clipPath>
<clipPath id="clip1">
<rect width="1920" height="910" fill="white" transform="translate(0 9.74023)"/>
</clipPath>
</defs>
</svg>
